!!!OTL: Mein Maedchen.
!!!OTL-incipit: WENN MAN MIR EIN MAEDCHEN NENNT
!!!COM: P. Groenland
!!!ARE: Europa, Mitteleuropa, Deutschland
!!!SCT: F0958
!!!TXL: @@DE
!!!YEM: Copyright 1995, estate of Helmut Schaffrath.
**kern	**text
*ICvox	*
*clefG2	*
*M6/8	*
*k[f#]	*
*G:	*
=1	=1
!LO:TX:a:t=Munter.	!
{4g	1._Wenn
8g	man
4cc/	mir
8b/	ein
=2	=2
4ee	Mädchen
8cc	.
4.dd}	nennt,
=3	=3
{8.gL	als
16aJ	.
8g	das
4ee	ſchönſte
8dd	.
=4	=4
8ddL	un-
8ccJ	.
8b/	-ter
4b/	al-
8a}	-len;
=5	=5
{4g	wenn
8g	man
4cc/	ſagt,
8b/	ein
=6	=6
4ee	Je-
8cc/	-der
4.dd/}	brennt,
=7	=7
{8.ddL	dieſem
16eeJ	.
8dd	.
4gg	Mädchen
8dd	.
=8	=8
8ddL	ʒu
8ccJ	.
8b	ge-
4b/	-fal-
8a}	-len
=9	=9
{4cc	o
8cc	dies
8.ccL	iſt
16eeJ	.
8gg	ſie!
=10	=10
4b	dies,
8gg	ja
4.a}	dies
=11	=11
{4a	iſt
8ee	mein
8.ddL	Mädchen
16ggJ	.
8g	.
=12	=12
16bqq	.
8aL	ganʒ
8gJ	.
8f#	gewiß.
4.g}	.
==	==
!!!AGN: Liebes - Lied
!!!ONB: ESAC (Essen Associative Code) Database: FINK
!!!AMT: compound duple
!!!AIN: vox
!!!EED: Helmut Schaffrath
!!!EEV: 1.0
!!!GTL: Minnelieder
!!!source: Musikalischer Hausschatz der Deutschen. Eine Sammlung von über 1000 Liedern und Gesängen mit Singstimmen und Klavierbegleitung. Leipzig, Litterarisches Verlags-Haus.
!!!page: 714
!!!URL-scan: https://www.digitale-sammlungen.de/en/view/bsb11144622?page=624
!!!ENC: Anna Maria Matuszewska
!!!EEV: 2024/08/08
*-	*-